X:68
T:Ringlnder efter Nille Henningsgrd (Brekken)
O:norway
A:Rros (Brekken)
M:4/4
L:1/8
Q:C4=80
K:D
A>df>e e>df2|A>df>e e>df2|f>ee>f g>ece|d>cd>f a2a2|\
A>df>e e>df2|A>df>e e>df2|f>ee>f g>ece|[1d>edc d4:|\
[2d>edc d3(f|:\
g2)g2 g>fe2|f2f2 f>ed2|c>def g>ece|d>efg a2a2|\
g2g2 g>fe2|f2f2 f>ed2|c>def g>ece|d>edc d4:|]
